X:191
T:Hamilton County Breakdown
C:Arr. Joe Carr
N:
R:bluegrass
L:1/8
Q:1/4=240
M:4/4
K:G
z8 | z2 B2 c2 ^c2 | "G"[g2d2] [g2d2] [gd]e dA | Bd AG zB AG | "F"=FA GF EG FE | 
"D"D6 FG | AA cB A2 Bc | dB AG FE DF | "G"GD =FE DC B,A, | G,6 A,^A, | B,D EF GF GA | 
Bd ef gf ge | "F"=fe fg ag fe | "D"d6 B^c | d^c de f3g | ag ab c'b ac' | "G"ba gb ag =fa | 
g=f eg fe d^d | "C"eg ze g2 [ge][ge] | ed ce dc A2 | "G"[gd][gd] [gd][gd] [gd]c ^AB | 
G2 [B2G2] [B2G2] AB | "D"cB cB AB AG | FD EF D3E | "G"GF GA Bd ef | gf ga ge g^a | 
"C"ge ga ge c^a | ge ga ge g^a | "G"ge dg Ad ef | ge dc Bc dA | "D"cB Ac BA GB | 
AB AG FE DF | "G"GD =FE DC B,A, | G,8 | 


